usr/share/icons/biglinux-icons-material/24/actions/games-hint.svg

<svg xmlns="http://www.w3.org/2000/svg" viewBox="0 0 24 24">
  <defs id="defs3051">
    <style type="text/css" id="current-color-scheme">
      .ColorScheme-Text {
        color:#dedede;
      }
      </style>
  </defs>
 <path style="fill:currentColor;fill-opacity:1;stroke:none" 
     d="M 12 4 L 12 4.0019531 C 9.00044 4.0019531 7.5 5.9881406 7.5 8.4003906 C 7.5 10.999757 10.414062 16 10.414062 16 L 13.585938 15.996094 C 13.585938 15.996094 16.5 10.999751 16.5 8.4003906 C 16.5 5.9881586 15.00044 4 12 4 z M 12 5.0019531 C 14.33368 5.0019531 15.5 6.6577085 15.5 8.6679688 C 15.5 10.834169 13.234375 14.998047 13.234375 14.998047 L 10.765625 15.001953 C 10.765625 15.001953 8.5 10.834169 8.5 8.6679688 C 8.5 6.6576788 9.66702 5.0039064 12 5.0039062 L 12 5.0019531 z M 10 17 L 10 18.5 C 10 19.331 10.669 20 11.5 20 L 12.5 20 C 13.331 20 14 19.331 14 18.5 L 14 17 L 12.5 17 L 11.5 17 L 10 17 z "
     class="ColorScheme-Text"
     />
</svg>

<svg xmlns="http://www.w3.org/2000/svg" viewBox="0 0 24 24"><path d="M12 4v.002c-3 0-4.5 1.986-4.5 4.398 0 2.6 2.914 7.6 2.914 7.6l3.172-.004S16.5 11 16.5 8.4C16.5 5.988 15 4 12 4zm0 1.002c2.334 0 3.5 1.656 3.5 3.666 0 2.166-2.266 6.33-2.266 6.33l-2.468.004S8.5 10.834 8.5 8.668c0-2.01 1.167-3.664 3.5-3.664v-.002zM10 17v1.5c0 .831.669 1.5 1.5 1.5h1c.831 0 1.5-.669 1.5-1.5V17h-4z" style="fill:currentColor;fill-opacity:1;stroke:none;color:#dedede"/></svg>
